images/cybersport_theme_dark.svg

<svg width="50" height="50" viewBox="0 0 50 50" fill="none" xmlns="http://www.w3.org/2000/svg">
<path fill-rule="evenodd" clip-rule="evenodd" d="M16.0603 9.88199C14.6606 10.3015 12.7419 10.9325 11.7965 11.2841C10.8512 11.6357 9.49597 12.157 8.78497 12.4427C8.07397 12.7284 6.55056 13.3915 5.39963 13.9164C3.81322 14.6398 3.16077 14.9913 2.70258 15.3692C2.3701 15.6434 1.93043 16.0972 1.72552 16.3776C1.52075 16.6581 1.24557 17.2123 1.11417 17.6092C0.982767 18.0061 0.833561 18.7844 0.782653 19.3388C0.731718 19.8932 0.662843 21.2663 0.629545 22.3902C0.596246 23.514 0.5932 25.2126 0.622811 26.1648C0.652529 27.1169 0.73675 28.5906 0.810181 29.4396C0.883505 30.2886 1.05384 31.7887 1.18869 32.7732C1.32343 33.7577 1.55552 35.2147 1.70442 36.011C1.85333 36.8073 2.21341 38.358 2.50472 39.4569C2.91908 41.0203 3.1062 41.5703 3.36512 41.9857C3.54718 42.2776 3.96004 42.8005 4.28271 43.1477C4.64143 43.5337 5.211 43.9724 5.74864 44.2767C6.28377 44.5797 6.96105 44.8464 7.47903 44.9581C7.94717 45.0591 8.66493 45.1405 9.07404 45.1388C9.5033 45.1372 10.2255 45.0298 10.7817 44.8852C11.3118 44.7472 11.9932 44.5008 12.296 44.3377C12.5988 44.1745 13.1613 43.7728 13.5459 43.445C14.052 43.0139 14.4122 42.5702 14.8485 41.8408C15.2719 41.1332 15.5045 40.5834 15.6285 39.9969C15.7258 39.5373 15.8225 38.7259 15.8434 38.1938C15.8643 37.6617 15.9858 36.9326 16.1134 36.5735C16.241 36.2144 16.5347 35.6706 16.7662 35.3651C16.9978 35.0596 17.4344 34.6256 17.7366 34.4009L18.286 33.9922L24.6367 32.256C29.2426 30.9968 31.1582 30.5107 31.6087 30.4868C31.9504 30.4687 32.4478 30.497 32.7139 30.5497C32.9801 30.6025 33.4484 30.7549 33.7546 30.8885C34.0609 31.0221 34.5444 31.33 34.8292 31.5726C35.1141 31.8153 35.5789 32.3825 35.8623 32.8331C36.1456 33.2838 36.6407 33.9367 36.9622 34.2842C37.3358 34.6879 37.8889 35.1096 38.4944 35.4524C39.0946 35.7922 39.7539 36.0559 40.293 36.1718C40.761 36.2726 41.4608 36.3508 41.8478 36.3456C42.235 36.3404 42.912 36.2697 43.3523 36.1884C43.8928 36.0885 44.3987 35.9168 44.9098 35.6596C45.3262 35.4502 45.9811 35.0085 46.3651 34.6781C46.8727 34.2413 47.2266 33.8006 47.662 33.0623C48.1146 32.2951 48.3013 31.8299 48.4264 31.158C48.5175 30.6691 48.5888 30.0165 48.5848 29.7079C48.5801 29.3448 48.388 28.4619 48.0404 27.2071C47.7449 26.1403 47.2834 24.6421 47.0149 23.8778C46.7464 23.1135 46.2193 21.7355 45.8434 20.8156C45.4677 19.8956 44.8643 18.5115 44.5026 17.7397C44.1409 16.9679 43.4762 15.6496 43.0255 14.8102C42.5747 13.9708 41.7227 12.5012 41.132 11.5445C40.5413 10.5877 39.7951 9.43281 39.4736 8.9782C39.1521 8.52348 38.6335 7.92401 38.3211 7.64592C38.0088 7.36783 37.4932 7.02545 37.1755 6.88483C36.8578 6.74434 36.2499 6.57072 35.8247 6.4991C35.2613 6.40409 34.5212 6.41882 33.0963 6.5534C32.0209 6.65488 30.394 6.83599 29.481 6.9557C28.568 7.07551 27.0078 7.3131 26.014 7.48373C25.0201 7.65437 23.2627 8.02158 22.1086 8.29965C20.9545 8.57783 19.6941 8.87592 19.3077 8.96217C18.9213 9.04852 17.4599 9.46237 16.0603 9.88199ZM12.2448 17.7589C12.4672 17.8224 12.786 18.0029 12.9533 18.16C13.2226 18.4128 13.3083 18.6345 13.6992 20.0914L14.141 21.7372L15.9065 21.3023C17.4894 20.9123 17.7085 20.8815 18.025 21.005C18.2191 21.0807 18.5121 21.2467 18.6761 21.3738C18.8978 21.5457 19.0166 21.7628 19.1392 22.2201C19.2618 22.6773 19.2675 22.9247 19.1615 23.1843C19.0831 23.3764 18.9124 23.6665 18.7822 23.8291C18.5699 24.0941 18.3647 24.177 16.7988 24.6302L15.0522 25.1358L15.4931 26.7818C15.8834 28.2389 15.9201 28.4737 15.8134 28.8272C15.7471 29.0468 15.5613 29.3624 15.4005 29.5285C15.21 29.7255 14.9182 29.8817 14.5629 29.9771C14.1726 30.0819 13.8995 30.0832 13.6019 29.9814C13.3733 29.9032 13.053 29.6984 12.8902 29.5262C12.6392 29.2609 12.5285 28.9683 12.164 27.6091L11.7339 26.005L10.1533 26.4282C8.7267 26.8102 8.52001 26.8409 8.03236 26.7428C7.6376 26.6633 7.39342 26.5251 7.12585 26.2296C6.9245 26.0072 6.727 25.7034 6.68708 25.5545C6.64716 25.4056 6.6661 25.0438 6.72929 24.7506C6.81316 24.361 6.95548 24.1192 7.25761 23.8532C7.63081 23.5245 7.82516 23.4478 9.25176 23.0658L10.8324 22.6425L10.4023 21.0384C10.0378 19.6792 9.98738 19.3705 10.072 19.0152C10.1268 18.7848 10.3018 18.4474 10.4606 18.2654C10.6675 18.0286 10.9046 17.8932 11.295 17.789C11.6505 17.6941 11.9813 17.6835 12.2448 17.7589ZM35.1422 12.1408C35.3849 12.172 35.7559 12.2881 35.9668 12.3986C36.1776 12.5092 36.49 12.765 36.6608 12.967C36.8317 13.169 37.0285 13.5471 37.0982 13.8071C37.1679 14.0672 37.1867 14.493 37.1397 14.7533C37.0929 15.0136 36.9504 15.3912 36.8231 15.5923C36.6958 15.7934 36.4325 16.0794 36.238 16.2276C36.0435 16.3759 35.6889 16.5496 35.45 16.6135C35.2111 16.6775 34.8171 16.7043 34.5744 16.6731C34.3318 16.6419 33.9608 16.5258 33.7499 16.4153C33.539 16.3047 33.2267 16.0489 33.0559 15.8469C32.885 15.6449 32.6899 15.2774 32.6222 15.0303C32.5546 14.7832 32.5268 14.3852 32.5605 14.1458C32.5942 13.9065 32.715 13.54 32.829 13.3313C32.9429 13.1226 33.2051 12.8128 33.4116 12.6428C33.618 12.4728 33.9926 12.2775 34.244 12.2089C34.4954 12.1402 34.8996 12.1096 35.1422 12.1408ZM30.1047 20.6975C30.3473 20.7287 30.7183 20.8448 30.9292 20.9553C31.1401 21.0659 31.4524 21.3217 31.6232 21.5237C31.7941 21.7257 31.9909 22.1038 32.0606 22.3638C32.1304 22.6239 32.1491 23.0497 32.1022 23.31C32.0553 23.5703 31.9128 23.9479 31.7855 24.149C31.6582 24.3501 31.3949 24.636 31.2004 24.7843C31.0059 24.9326 30.6513 25.1063 30.4124 25.1702C30.1735 25.2342 29.7795 25.261 29.5368 25.2298C29.2942 25.1986 28.9232 25.0825 28.7123 24.9719C28.5014 24.8614 28.1891 24.6056 28.0183 24.4036C27.8474 24.2016 27.6523 23.8341 27.5847 23.587C27.517 23.3398 27.4892 22.9419 27.5229 22.7025C27.5566 22.4632 27.6775 22.0967 27.7914 21.888C27.9053 21.6793 28.1675 21.3695 28.374 21.1995C28.5804 21.0295 28.9551 20.8342 29.2064 20.7656C29.4578 20.6969 29.862 20.6663 30.1047 20.6975Z" fill="white"/>
</svg>

<svg width="50" height="50" fill="none" xmlns="http://www.w3.org/2000/svg"><path fill-rule="evenodd" clip-rule="evenodd" d="M16.06 9.882c-1.4.42-3.318 1.05-4.263 1.402-.946.352-2.301.873-3.012 1.159-.711.285-2.234.949-3.385 1.473-1.587.724-2.24 1.075-2.697 1.453a6.855 6.855 0 0 0-.977 1.009c-.205.28-.48.834-.612 1.231-.131.397-.28 1.175-.331 1.73-.051.554-.12 1.927-.153 3.051a75.785 75.785 0 0 0-.007 3.775c.03.952.114 2.426.187 3.275.074.849.244 2.349.379 3.333.134.985.367 2.442.515 3.238.15.796.51 2.347.8 3.446.415 1.563.602 2.113.861 2.529.182.292.595.815.918 1.162.358.386.928.824 1.466 1.129.535.303 1.212.57 1.73.681a9.011 9.011 0 0 0 1.595.18c.43 0 1.152-.108 1.708-.253.53-.138 1.211-.384 1.514-.547.303-.163.865-.565 1.25-.893.506-.431.866-.875 1.303-1.604.423-.708.655-1.258.78-1.844.097-.46.194-1.271.214-1.803.021-.532.143-1.261.27-1.62.128-.36.422-.903.653-1.209.232-.305.668-.74.97-.964l.55-.409 6.35-1.736c4.607-1.26 6.522-1.745 6.973-1.77.341-.017.839.011 1.105.064.266.052.734.205 1.04.338.307.134.79.442 1.075.685.285.242.75.81 1.033 1.26.284.45.779 1.104 1.1 1.451.374.404.927.826 1.532 1.168.6.34 1.26.604 1.799.72a8.47 8.47 0 0 0 1.555.174 10.873 10.873 0 0 0 1.504-.158c.54-.1 1.047-.271 1.558-.528a8.692 8.692 0 0 0 1.455-.982c.508-.437.862-.877 1.297-1.616.453-.767.64-1.232.764-1.904.091-.489.163-1.142.159-1.45-.005-.363-.197-1.246-.545-2.5a63.713 63.713 0 0 0-1.025-3.33 80.005 80.005 0 0 0-1.172-3.062 81.021 81.021 0 0 0-1.34-3.076 73.142 73.142 0 0 0-1.477-2.93 76.302 76.302 0 0 0-1.894-3.266 66.393 66.393 0 0 0-1.658-2.566c-.322-.455-.84-1.054-1.153-1.332-.312-.278-.828-.62-1.145-.761a6.875 6.875 0 0 0-1.351-.386c-.564-.095-1.304-.08-2.729.054-1.075.102-2.702.283-3.615.403-.913.12-2.473.357-3.467.528a73.22 73.22 0 0 0-3.905.816c-1.155.278-2.415.576-2.801.662-.387.087-1.848.5-3.248.92Zm-3.815 7.877c.222.063.541.244.708.401.27.253.355.474.746 1.931l.442 1.646 1.765-.435c1.583-.39 1.803-.42 2.119-.297.194.076.487.242.651.369.222.172.34.389.463.846.123.457.128.705.023.964a3.14 3.14 0 0 1-.38.645c-.212.265-.417.348-1.983.801l-1.747.506.441 1.646c.39 1.457.427 1.692.32 2.045a2.04 2.04 0 0 1-.413.701c-.19.198-.482.354-.837.45-.39.104-.664.105-.961.003a2.097 2.097 0 0 1-.712-.455c-.25-.265-.362-.558-.726-1.917l-.43-1.604-1.58.423c-1.427.382-1.634.413-2.122.315a1.49 1.49 0 0 1-.906-.513c-.202-.223-.399-.527-.439-.675-.04-.15-.02-.511.042-.804.084-.39.226-.632.529-.898.373-.329.567-.405 1.994-.787l1.58-.424-.43-1.604c-.364-1.359-.415-1.668-.33-2.023a2.1 2.1 0 0 1 .389-.75c.207-.236.444-.372.834-.476.355-.095.686-.106.95-.03Zm22.897-5.618c.243.031.614.147.825.258.21.11.523.366.694.568.17.202.367.58.437.84s.089.686.042.946c-.047.26-.19.638-.317.84-.127.2-.39.486-.585.635a2.71 2.71 0 0 1-.788.385 2.722 2.722 0 0 1-.876.06 2.937 2.937 0 0 1-.824-.258 2.807 2.807 0 0 1-.694-.568 2.559 2.559 0 0 1-.434-.817 2.625 2.625 0 0 1-.062-.884c.034-.24.155-.606.269-.815a2.85 2.85 0 0 1 .583-.688c.206-.17.58-.366.832-.434.251-.069.656-.1.898-.068Zm-5.037 8.557c.242.03.613.147.824.257.211.11.523.367.694.569.171.202.368.58.438.84s.088.686.041.946c-.047.26-.19.638-.316.839a2.938 2.938 0 0 1-.586.635 2.71 2.71 0 0 1-.788.386 2.715 2.715 0 0 1-.875.06 2.934 2.934 0 0 1-.825-.258 2.805 2.805 0 0 1-.694-.568 2.556 2.556 0 0 1-.433-.817 2.623 2.623 0 0 1-.062-.884 2.88 2.88 0 0 1 .268-.815 2.85 2.85 0 0 1 .583-.689c.206-.17.581-.365.832-.433a2.7 2.7 0 0 1 .899-.068Z" fill="#fff"/></svg>
